X:1
T:Are You Coming to the Feast?
T:William James Kirkpatrick
T:Are You Coming to the Feast?
T:Public Domain
T:Public Domain
T:Public Domain
C:William James Kirkpatrick
Z:Public Domain
%%score ( 1 2 ) 3
L:1/8
M:4/4
K:D
V:1 treble 
V:2 treble 
V:3 bass 
V:1
 [DF][EG] | [FA]2 [FA]>[FA] [GB] [FA]2 [FA] | [GB][Gd][Gd][GB] [FA]2 [DF][EG] | %3
w: 1.~There’s a|feast now a- wait- ing, pre-|pared by lov- ing hands, In the|
w: 2.~Come, for|all things are rea- dy, why|will you stay a- way? Hear the|
w: 3.~’Tis a|feast ev- er- last- ing, a-|bun- dant, rich and free, Thro’ the|
 [FA]2 [FA]>[FA] [GB] [FA]2 [DF] | [DF][CE][CE][^B,^D] [CE]2 [=DF][EG] | %5
w: midst of the ban- quet, the|gen- tle Sav- ior stands; Then no|
w: kind in- vi- ta- tion, O|come, with- out de- lay; ’Tis the|
w: blood of the Sav- ior, an|o- pen door we see; Come and|
 [FA]2 [FA][FA] [GB] [FA]2 [FA] | [GB][Gd][Gd][GB] [FA]3 [FA]/[FA]/ | %7
w: long- er go rov- ing o’er|de- serts bare and wild, See! the|
w: day of sal- va- tion; why|will you long- er roam? There’s a|
w: wear the white rai- ment, the|wed- ding gar- ment fair, And the|
 [Fd][Fd][^Ed][Fd] [GB] [FA]2 [DF] | [CE][EG][DF][CE] D2 |:"^Refrain" [FA]>[FA] | %10
w: Fa- ther now is wait- ing to|greet His wear- y child.|in- vit-|
w: man- sion now pre- par- ing, for|you in yon- der home.|~ ~|
w: Lord and all His an- gels will|bid you wel- come there.||
 [GB] [FA]3- [FA]2 [FA]>[FA] | [GB] [FA]3- [FA]2 [FA][FA] | [GB][Gd][Gd][GB] [GB] [FA]2 [DF] | %13
w: ed, are * you com-|ing? O * ac- cept|the in- vi- ta- tion; All things|
w: ~ ~ * ~ ~|~ See * the Fa-|ther now is wait- ing To ~|
w: |||
 [DF][CE][CE][^B,^D] [CE]2 :| [CE][EG][DF][CE] D2 |] %15
w: are rea- dy, come; *||
w: ~ ~ ~ ~ wel-|come wan- d’rers home. *|
w: ||
V:2
 x2 | x8 | x8 | x8 | x8 | x8 | x8 | x8 | x4 D2 |: x2 | x8 | x8 | x8 | x6 :| x4 D2 |] %15
w: ||||||||You’re|||||||
w: ||||||||~|||||||
V:3
 [D,A,][D,A,] | [D,D]2 [D,D]>[D,D] [D,D] [D,D]2 [D,D] | %2
w: ~ ~|~ ~ ~ ~ ~ ~|
 [G,D][G,B,][G,B,][G,D] [D,D]2 [D,A,][D,A,] | [D,D]2 [D,D]>[D,D] [D,D] [D,D]2 [D,A,] | %4
w: ~ ~ ~ ~ ~ ~ ~|~ ~ ~ ~ ~ ~|
 [A,,A,][A,,A,][A,,A,][A,,A,] [A,,A,]2 [D,A,][D,A,] | [D,D]2 [D,D][D,D] [D,D] [D,D]2 [D,D] | %6
w: ~ ~ ~ ~ ~ ~ ~|~ ~ ~ ~ ~ ~|
 [G,D][G,B,][G,B,][G,D] [D,D]3 [D,D]/[D,D]/ | [D,A,][D,A,][D,^G,][D,A,] [D,D] [D,D]2 [D,A,] | %8
w: ~ ~ ~ ~ ~ ~ ~|~ ~ ~ ~ ~ ~ ~|
 [A,,A,][A,,A,][A,,A,][A,,A,] [D,F,]2 |: z2 | z2 [D,D]>[D,D] [D,D]2 z2 | %11
w: ~ ~ ~ ~ ~||to the feast,|
 z2 [D,D]>[D,D] [D,D]2 [D,D][D,D] | [G,D][G,B,][G,B,][G,D] [D,D] [D,D]2 [D,A,] | %13
w: to the feast * *||
 [A,,A,][A,,A,][A,,A,][A,,A,] [A,,A,]2 :| [A,,A,][A,,A,][A,,A,][A,,A,] [D,F,]2 |] %15
w: ||

